packages/foundations/assets/icons/functional/images/transportation/handcart_16_inverted.svg

<svg width="16" height="16" viewBox="0 0 16 16" fill="none" xmlns="http://www.w3.org/2000/svg">
<g clip-path="url(#clip0_2214_7305)">
<path fill-rule="evenodd" clip-rule="evenodd" d="M3.6007 11.14C4.26344 11.14 4.8007 11.6773 4.8007 12.34C4.8007 13.0028 4.26344 13.54 3.6007 13.54C2.93796 13.54 2.4007 13.0028 2.4007 12.34C2.4007 11.6773 2.93796 11.14 3.6007 11.14ZM9.2007 11.14C9.86344 11.14 10.4007 11.6773 10.4007 12.34C10.4007 13.0028 9.86344 13.54 9.2007 13.54C8.53796 13.54 8.0007 13.0028 8.0007 12.34C8.0007 11.6773 8.53796 11.14 9.2007 11.14ZM6.8007 11.66C7.17626 11.66 7.4807 11.9645 7.4807 12.34C7.4807 12.6867 7.21951 13.02 6.8007 13.02C6.61704 13.02 6.35038 13.02 6.0007 13.02C5.62515 13.02 5.3207 12.7156 5.3207 12.34C5.3207 11.9934 5.59252 11.66 6.0007 11.66H6.8007ZM11.2299 2.46002C12.3237 2.46002 13.2559 3.23502 13.4662 4.29506L14.2794 10.2951C14.2794 10.6049 14.1545 10.8226 13.9048 10.9482C13.6551 11.0738 13.1217 11.3405 12.3048 11.7482C11.9689 11.9162 11.5604 11.78 11.3925 11.4441C11.2375 11.1341 11.3275 10.7116 11.6966 10.5318L12.8615 9.94882L12.1417 4.6169C12.0844 4.19312 11.6966 3.82515 11.3275 3.82515C10.8279 3.82515 10.5331 3.51558 10.5331 3.14002C10.5331 2.79336 10.8055 2.46002 11.2299 2.46002ZM10.4007 6.34002C10.7763 6.34002 11.0807 6.64447 11.0807 7.02002C11.0807 7.36669 10.8529 7.70002 10.4007 7.70002V9.14002C10.3882 9.97453 10.0968 10.3313 9.23727 10.34H3.62034C3.02526 10.334 2.4007 10.1058 2.4007 9.14002V7.70002C1.98214 7.70002 1.7207 7.39558 1.7207 7.02002C1.7207 6.67336 1.99292 6.34002 2.4007 6.34002C7.48367 6.34002 10.1503 6.34002 10.4007 6.34002Z" fill="#1A1C1F"/>
</g>
<defs>
<clipPath id="clip0_2214_7305">
<rect width="16" height="16" fill="white"/>
</clipPath>
</defs>
</svg>

<svg xmlns="http://www.w3.org/2000/svg" width="16" height="16" fill="none"><g clip-path="url(#a)"><path fill="#1A1C1F" fill-rule="evenodd" d="M3.6 11.14a1.2 1.2 0 1 1 0 2.4 1.2 1.2 0 0 1 0-2.4m5.6 0a1.2 1.2 0 1 1 0 2.4 1.2 1.2 0 0 1 0-2.4m-2.4.52a.68.68 0 0 1 .68.68.67.67 0 0 1-.68.68H6a.68.68 0 1 1 0-1.36zm4.43-9.2a2.28 2.28 0 0 1 2.236 1.835l.813 6q0 .465-.374.653-.375.19-1.6.8a.68.68 0 0 1-.912-.304.673.673 0 0 1 .304-.912l1.165-.583-.72-5.332c-.058-.424-.445-.792-.814-.792-.5 0-.795-.31-.795-.685 0-.347.273-.68.697-.68m-.83 3.88a.68.68 0 0 1 .68.68c0 .347-.227.68-.68.68v1.44c-.012.835-.303 1.191-1.163 1.2H3.62c-.595-.006-1.22-.234-1.22-1.2V7.7c-.418 0-.68-.304-.68-.68 0-.347.273-.68.68-.68z" clip-rule="evenodd"/></g><defs><clipPath id="a"><path fill="#fff" d="M0 0h16v16H0z"/></clipPath></defs></svg>
